images/gallery-svgrepo-com.svg

<?xml version="1.0" encoding="utf-8"?><!-- Uploaded to: SVG Repo, www.svgrepo.com, Generator: SVG Repo Mixer Tools -->
<svg width="20px" height="20px" viewBox="0 0 24 24" fill="none" xmlns="http://www.w3.org/2000/svg">
<circle cx="16" cy="8" r="2" stroke="#1C274C" stroke-width="1.5"/>
<path d="M2 12.5001L3.75159 10.9675C4.66286 10.1702 6.03628 10.2159 6.89249 11.0721L11.1822 15.3618C11.8694 16.0491 12.9512 16.1428 13.7464 15.5839L14.0446 15.3744C15.1888 14.5702 16.7369 14.6634 17.7765 15.599L21 18.5001" stroke="#1C274C" stroke-width="1.5" stroke-linecap="round"/>
<path d="M22 12C22 16.714 22 19.0711 20.5355 20.5355C19.0711 22 16.714 22 12 22C7.28595 22 4.92893 22 3.46447 20.5355C2 19.0711 2 16.714 2 12C2 7.28595 2 4.92893 3.46447 3.46447C4.92893 2 7.28595 2 12 2C16.714 2 19.0711 2 20.5355 3.46447C21.5093 4.43821 21.8356 5.80655 21.9449 8" stroke="#1C274C" stroke-width="1.5" stroke-linecap="round"/>
</svg>

<svg xmlns="http://www.w3.org/2000/svg" width="20" height="20" fill="none" viewBox="0 0 24 24"><circle cx="16" cy="8" r="2" stroke="#1C274C" stroke-width="1.5"/><path stroke="#1C274C" stroke-linecap="round" stroke-width="1.5" d="m2 12.5 1.752-1.533a2.3 2.3 0 0 1 3.14.105l4.29 4.29a2 2 0 0 0 2.564.222l.299-.21a3 3 0 0 1 3.731.225L21 18.5"/><path stroke="#1C274C" stroke-linecap="round" stroke-width="1.5" d="M22 12c0 4.714 0 7.071-1.465 8.535C19.072 22 16.714 22 12 22s-7.071 0-8.536-1.465C2 19.072 2 16.714 2 12s0-7.071 1.464-8.536C4.93 2 7.286 2 12 2c4.714 0 7.071 0 8.535 1.464.974.974 1.3 2.343 1.41 4.536"/></svg>
